X: 823
T: Gerçi Pek Esmer Olur
C: Ahmet Avni Konuk
O: Turkey
F: http://compmusic.upf.edu/node/140
N: hicaz--kupe--duyek--gerci-2--ahmet_avni_konuk
N: makam= hicaz
N: form= kupe
N: usul= duyek = 8/4
M: 8/4
L: 1/16
K: C _7/8B ^f ^c 
Q: 1/4=57
%%MIDI tuningsystem comma53
z4 d8 e2=f2 e2d2 ^3/4c2d2 e4 z4  | \
w:  Ger çi  *  pek  *  *  *  es  | 
z4 e2^2/4f2 e4 f4 g4 a2g2 =f3e d4  | 
w:  mer  *  *  o lur  *  *  ruh  | 
z4 d8 {e}d2^3/4c2 d4 z4 d3c d2e2  | \
w:  sâr_ *  ı  *  mah bûb_  | 
d2^3/4c2 B3A G4 d3c c2d2 c2B2 A2B2 c4  | 
w:  *  *  ı  *  *  Hi *  caz    | 
z4 d8 b4 a4 g2^3/4f2 e4 f4  | g4 a2b2 a4 g4 g2^2/4f2 g2e2 d4 e4  | \
w:  Nağ me sin  *  *  gûş_  |  ey *  *  *  le yin *  *  *  ce   | 
^3/4f4 g4 f4 e2=f2 e2d2 d2f2 e2d2 ^3/4c2B2  | 
w:  *  yan *  ma *  yan  *  *  *  gâ  | 
A4 ^3/4c2d2 d4 d2c2 c2B2 B2A2 A4 z4  | |


